X:096 
T:Kilkenny Priest*, The 
S:Fr.A. Skehan
F:file ID: cre.5/096kilk_p
B:CRE5.075 (gan ainm)
M:12/8
Q:160
R:jig
K:D
d/e/|f2f fgf a2g e2f|gfg e2f a2f d2e|
f2f fgf a2g e2g|fgf e2f d3 d2:|
z|d2d dcd e2c A2F|GFG E2F A2F D3|
d2d dcd e2c A2F|GFG F2E D3 D2:|

%%%

